src/topics/icons/aws-cloudwatch.svg

<svg height="290" preserveAspectRatio="xMidYMid" viewBox="0 0 256 290" width="256" xmlns="http://www.w3.org/2000/svg"><path d="m256 199.305-127.957-18.797-128.043 18.821 128.01 47.439z" fill="#b7ca9d"/><path d="m25.621 197.113 21.63 6.761 1.971-2.238v-151.352l-1.971-2.585-21.63 8.274z" fill="#4b612c"/><path d="m123.832 190.423-76.581 13.451v-156.171l76.581 17.222z" fill="#759c3e"/><path d="m89.686 216.889-29.848-9.201v-192.76l29.848-14.924 2.612 2.845v210.858z" fill="#4b612c"/><path d="m191.967 192.894-102.281 23.995v-216.889l102.281 39.866z" fill="#759c3e"/><path d="m127.965 244.714-127.965-45.385v26.324l127.965 63.983z" fill="#4b612c"/><path d="m256 225.622-128.035 64.014v-44.922l128.035-45.409z" fill="#759c3e"/><path d="m220.039 155.692h-31.026l-88.445 6.026 27.432 5.057z" fill="#b7ca9d"/><path d="m100.568 219.906 27.42 8.226.789-.849-.023-61.849-.789-.758-27.397-2.958z" fill="#4b612c"/><path d="m220.039 155.692-92.074 8.98.023 63.46 92.051-27.711z" fill="#759c3e"/></svg>

<?xml version="1.0" encoding="UTF-8" standalone="no"?>
<svg width="256px" height="290px" viewBox="0 0 256 290" version="1.1" xmlns="http://www.w3.org/2000/svg" xmlns:xlink="http://www.w3.org/1999/xlink" preserveAspectRatio="xMidYMid">
	<g>
		<path d="M256,199.305 L128.043,180.508 L0,199.329 L128.01,246.768 L256,199.305" fill="#B7CA9D"></path>
		<path d="M25.621,197.113 L47.251,203.874 L49.222,201.636 L49.222,50.284 L47.251,47.699 L25.621,55.973 L25.621,197.113" fill="#4B612C"></path>
		<path d="M123.832,190.423 L47.251,203.874 L47.251,47.703 L123.832,64.925 L123.832,190.423" fill="#759C3E"></path>
		<path d="M89.686,216.889 L59.838,207.688 L59.838,14.928 L89.686,0.004 L92.298,2.849 L92.298,213.707 L89.686,216.889" fill="#4B612C"></path>
		<path d="M191.967,192.894 L89.686,216.889 L89.686,0 L191.967,39.866 L191.967,192.894" fill="#759C3E"></path>
		<path d="M127.965,244.714 L0,199.329 L0,225.653 L127.965,289.636 L127.965,244.714" fill="#4B612C"></path>
		<path d="M256,225.622 L127.965,289.636 L127.965,244.714 L256,199.305 L256,225.622" fill="#759C3E"></path>
		<path d="M220.039,155.692 L189.013,155.692 L100.568,161.718 L128,166.775 L220.039,155.692" fill="#B7CA9D"></path>
		<path d="M100.568,219.906 L127.988,228.132 L128.777,227.283 L128.754,165.434 L127.965,164.676 L100.568,161.718 L100.568,219.906" fill="#4B612C"></path>
		<path d="M220.039,155.692 L127.965,164.672 L127.988,228.132 L220.039,200.421 L220.039,155.692" fill="#759C3E"></path>
	</g>
</svg>
